src/assets/filled/Hospital.svg

<?xml version="1.0" encoding="UTF-8"?>
<svg width="24" height="24" viewBox="0 0 24 24" xmlns="http://www.w3.org/2000/svg">
 <path d="m22 21.25h-20c-0.41 0-0.75 0.34-0.75 0.75s0.34 0.75 0.75 0.75h20c0.41 0 0.75-0.34 0.75-0.75s-0.34-0.75-0.75-0.75z"/>
 <path d="m17 2h-10c-3 0-4 1.79-4 4v16h6v-6.06c0-0.52 0.42-0.94 0.94-0.94h4.13c0.51 0 0.94 0.42 0.94 0.94v6.06h6v-16c-0.01-2.21-1.01-4-4.01-4zm-2.5 7.25h-1.75v1.75c0 0.41-0.34 0.75-0.75 0.75s-0.75-0.34-0.75-0.75v-1.75h-1.75c-0.41 0-0.75-0.34-0.75-0.75s0.34-0.75 0.75-0.75h1.75v-1.75c0-0.41 0.34-0.75 0.75-0.75s0.75 0.34 0.75 0.75v1.75h1.75c0.41 0 0.75 0.34 0.75 0.75s-0.34 0.75-0.75 0.75z"/>
</svg>

<svg width="24" height="24" viewBox="0 0 24 24"  xmlns="http://www.w3.org/2000/svg">
<path d="M22 21.25H2C1.59 21.25 1.25 21.59 1.25 22C1.25 22.41 1.59 22.75 2 22.75H22C22.41 22.75 22.75 22.41 22.75 22C22.75 21.59 22.41 21.25 22 21.25Z" />
<path d="M17 2H7C4 2 3 3.79 3 6V22H9V15.94C9 15.42 9.42 15 9.94 15H14.07C14.58 15 15.01 15.42 15.01 15.94V22H21.01V6C21 3.79 20 2 17 2ZM14.5 9.25H12.75V11C12.75 11.41 12.41 11.75 12 11.75C11.59 11.75 11.25 11.41 11.25 11V9.25H9.5C9.09 9.25 8.75 8.91 8.75 8.5C8.75 8.09 9.09 7.75 9.5 7.75H11.25V6C11.25 5.59 11.59 5.25 12 5.25C12.41 5.25 12.75 5.59 12.75 6V7.75H14.5C14.91 7.75 15.25 8.09 15.25 8.5C15.25 8.91 14.91 9.25 14.5 9.25Z" />
</svg>
